X:3
T:The March of the Royal British Legion
R:March
L:1/8
C:Unknown
M:6/8
K:D
[|: {e}A | {Gdc}d>{g}fa A>df | {a}g>f{g}e {Gdc}d2 {e}A | {gBd}B2 e {A}e>g{a}f | {gef}e2 B {gcd}c>B{G}A | 
{Gdc}d>{g}fa A>df | {a}g>f{g}e {Gdc}d2 {e}A | {gBd}B2 e {a}g>f{g}e | {gfg}f2 d {gdG}d2 :|] 
[|: {gf}g | a2 {AGAG}A {gfg}f3 | {a}g>f{g}e {Gdc}d2 {e}A | {gBd}B2 e {A}e>g{a}f | {gef}e2 B {gcd}c>B{G}A | 
 a2 {AGAG}A {gfg}f3 | {a}g>f{g}e {Gdc}d2 {e}A | {gBd}B2 e {a}g>f{g}e | {gfg}f2 d {gdG}d2 :|] 
 [|: f | {gAGAG}A2 f {g}A>df | {a}g>f{g}e {Gdc}d2 {e}A | {gBd}B2 e {A}e>g{a}f | {gef}e2 B {gcd}c>B{G}A | 
 {gAGAG}A2 f {g}A>df | {a}g>f{g}e {Gdc}d2 {e}A | {gBd}B2 e {a}g>f{g}e | {gfg}f2 d {gdG}d2 :|] 
 [|: {gf}g | {ag}a2 f a2 {GdG}a | f>ga {fg}f>ed | {gf}g2 e {a}g2 {GdG}g | {a}e<ge {gcd}c>B{G}A | 
 ["1"  {ag}a2 f a2 {GdG}a | f>ga {fg}f>ed | {gBd}B2 e {a}g>f{g}e | {gfg}f2 d {gdG}d2 ] :|] 
 ["2" {Gdc}d2 f {g}A>df | a2 {GdG}a {fg}f>ed | {gBd}B2 e {a}g>f{g}e | {gfg}f2 d {gdG}d2 ] :|] 

